**kern	**kern	**kern	**kern	**harm
!bass	!tenor	!alto	!soprno	!
*Iorgan	*Iorgan	*Iorgan	*Iorgan	*
*clefF4	*clefF4	*clefG2	*clefG2	*
*M4/4	*M4/4	*M4/4	*M4/4	*M4/4
*met(C)	*met(C)	*met(C)	*met(C)	*met(C)
*MM60	*MM60	*MM60	*MM60	*MM60
*k[]	*k[]	*k[]	*k[]	*k[]
*a:	*a:	*a:	*a:	*a:
=1-
4A	4c	4e	4a	Z
4G#	4B	4e	4b	bV
4A	4A	4e	4cc	Z
4AA;	4A;	4e;	4cc;	Z
=	=	=	=	=2
4A	4A	4e	4cc	Z
4G	4B	4g	4dd	Z
4c	4c	4g	4ee	Z
4C;	4c;	4g;	4ee;	Z
=	=	=	=	=3
8c	8c	4g	4ee	Z
8B	8d	.	.	.
8A	8c	4cc[	4ee	Z
8G	8B	.	.	.
8F#	8A	8cc]	4dd	7b-/V
8G#	8B	4b	.	Z
4A	8c	.	4cc	Z
.	8e	8a	.	.
=	=	=	=	=4
4D	4f	4a	.4b	Z
4E	8e	4g#	.	Z
.	8d	.	8a	.
2AA;	2c#;	2e;	2a;	Z
=	=	=	=	=5
8A	8c#	4a	4ee	Z
8B	8d	.	.	.
8c#	8e	4a	4ee	Z
8A	8c#	.	.	.
8d	4d	4a	4ff	Z
8cn	.	.	.	.
8B-	4d	4b-	4ff	Z
8A	.	.	.	.
=	=	=	=	=6
8G	4d	4b-	4ee	Z
8E	.	.	.	.
4A	4c#	8a	4ee	Z
.	.	8g	.	.
4D	4d	8g	4ee	Z
.	.	8e	.	.
4D;	4A;	4f#;	4dd;	Z
*C:	*C:	*C:	*C:	*C:
=	=	=	=	=7
8G	8B	4g	4dd	Z
8A	8c	.	.	.
8B	8d	4g	4dd	bV
8G	8B	.	.	.
8c	4c	4g	4ee	Z
8B	.	.	.	.
8A	4c	4a	4ee	Z
8G	.	.	.	.
=	=	=	=	=8
8F	4c	4a	4dd	7bi
8D	.	.	.	.
4G	4B	8g	4dd	Z
.	.	8f	.	.
4C	4c	8f	4cc	Z
.	.	8d	.	.
4C;	4G;	4e;	4cc;	Z
*a:	*a:	*a:	*a:	*a:
=	=	=	=	=9
4F	4A	4f	4cc	Z
8E	4A	4f	4dd	Z
8D	.	.	.	.
8G#	4B	4e	4ee	bV
8E	.	.	.	.
4A	4A	4e	8dd	Z
.	.	.	8cc	.
=	=	=	=	=10
4D#	4A	4f#	4b	7b/V
4E	4G#	8e	4b	Z
.	.	8d	.	.
4A	4A	8d	4a	Z
.	.	8B	.	.
4AA;	4E;	4c#;	4a;	Z
===	===	===	===	====
*-	*-	*-	*-	*-
